!!!OTL: 621. Engel und Lilien.
!!!COM: Volksweise
!!!ARE: Europa, Mitteleuropa, Deutschland
!!!SCT: B0621
!!!TXL: @@DE
!!!YEM: Copyright 1995, estate of Helmut Schaffrath.
**kern	**text
*ICvox	*
*Ivox	*
*clefG2	*
*M3/4	*
*k[f#]	*
*G:	*
=1	=1
!LO:TX:a:t=Langſam.	!
{4.g	Schla-
8a	-fe,
8b	Kindlein,
8cc	.
=2	=2
8ee	hold
8dd	und
2b}	ſüß,
=3	=3
{8dd	wie
8cc	im
4.a	En-
8a	-gelpa-
=4	=4
8cc	.
8b	-ra-
4g	-dies,
4r}	.
=5	=5
{8dd	ſchlaf'
8cc	in
4.a	ſtil-
8cc	-ler,
=6	=6
8ee	ſü-
8dd	-ßer
4b	Ruh',
4r}	.
=7	=7
{4.dd	thu
8b	die
8cc	klei-
8a	-nen
=8	=8
16ddL	Aug-
16ccJ	.
16bL	-lein
16aJ	.
(4a	ʒu!
4g);}	.
==	==
!!!AGN: Kinder -, Wiegen - Lied
!!!GTL: Kinderlieder
!!!ONB: ESAC (Essen Associative Code) Database: BOEHME
!!!AMT: simple triple
!!!AIN: vox
!!!EED: Helmut Schaffrath
!!!EEV: 1.0
!!@@COMMENT:"Gedicht von E. M. Arndt 1817. Mit dieֵ¿er lieblichen Melodie in Schulliederheften gefunden."
!!@@END:
!!!Text: E. M. Arndt
!!!URL-scan: https://archive.org/details/BoehmeVtLieder1895/page/n489/mode/2up
!!!ENC: Anna Maria Matuszewska
!!!EEV: 2024/15/07
*-	*-
